X: 632
T: Zhaoxian nangou
%%abc-version 2.0
%%abcx-abcm2ps-target-version 5.9.1 (29 Sep 2008)
%%abc-creator hum2abc beta
%%abcx-conversion-date 2013/10/02 07:52:30
%%abc-edited-by Helmut Schaffrath
%%humdrum-veritas 563657075
%%humdrum-veritas-data 2443239433
%%continueall 1
%%barnumbers 0
L: 1/8
M: 2/4
K: A
e f/ e/ c e [I:setbarnb 1]| 
eB3 | 
a f/ e/ d e | 
A E E F/ E/ | 
A> A A B | 
eB2A | 
B A E D | 
B,4 |]  



